X:1
T:Title
%%score ( 1 2 ) ( 3 4 )
L:1/8
Q:1/4=107
M:4/4
K:Eb
V:1 treble nm="Grand Piano, Soprano"
V:2 treble 
V:3 bass nm="Choir Pad, Douala, 87.87 D, 1888"
V:4 bass 
V:1
 EF [EG]2 [EG]2 [EG]2 | [B,E][EG] [GB]2 [GB]2 [GB]2 | [GB]2 [Ac]2 [Ac]2 [GB]2 | [EG]2 [EG]4 [DF]2 | %4
 .G2 z2 z4 | [EG][FA] [GB]2 [GB]2 [GB]2 | ed [Ac]2 [Ac]2 [GB]2 | [EG]2 [DF]4 [B,E]2 | %8
 EG [GB]2 [GB]2 [GB]2 | [GB]2 [Ac]2 [Ac]2 [GB]2 | [GB]2 [Ge]2 [Ae]2 [Be]2 | [Ge]2 [Ge]4 [Fd]2 | %12
 [AB]2 [Ge]2 [Ge]2 [Ge]2 | [GB]2 [Ac]2 [Ac]2 [GB]2 | EF [EG]2 [GB]2 [GB]2 | [EG]2 [DF]4 [B,E]2- | %16
 [B,E]6 z2 |] %17
V:2
 x8 | x8 | x8 | x8 | D-[DF] E2 [B,E]2 [B,E]2 | x8 | B2 z2 z4 | x8 | x8 | x8 | x8 | x8 | x8 | x8 | %14
 x8 | x8 | x8 |] %17
V:3
 G,A, [E,B,]2 [E,B,]2 [E,B,]2 | G,B, [E,E]2 [E,E]2 [E,E]2 | [E,E]2 [A,E]2 [A,E]2 [E,E]2 | %3
w: By~William~James~Kirkpatrick,~1888 * * * *|||
 [E,B,]2 [B,,B,]4 [B,,B,]2 | B,A, [E,G,]2 [E,G,]2 [E,G,]2 | [E,B,]2 [E,E]2 [E,E]2 [E,E]2 | %6
w: |||
 [G,E]2 [A,E]2 [A,E]2 [E,E]2 | [E,B,]2 [B,,A,]4 [E,G,]2 | G,B, [E,E]2 [E,B,]2 [G,E]2 | %9
w: |||
 [E,E]2 [A,E]2 [A,E]2 [E,E]2 | [E,B,]2 [E,B,]2 [F,B,]2 [G,B,]2 | [E,B,]2 B,4 B,2 | %12
w: |||
 [B,D]2 [E,B,]2 [E,B,]2 [E,B,]2 | [E,E]2 [A,E]2 [A,E]2 [E,E]2 | G,A, [E,B,]2 [E,E]2 [E,E]2 | %15
w: |||
 [E,B,]2 [B,,A,]4 [E,G,]2- | [E,G,]6 z2 |] %17
w: ||
V:4
 E,2 z2 z4 | E,2 z2 z4 | x8 | x8 | B,,2 z2 z4 | x8 | x8 | x8 | E,2 z2 z4 | x8 | x8 | x8 | x8 | x8 | %14
 E,2 z2 z4 | x8 | x8 |] %17

